X:79
T:Favorite Pandean Dance, A
S:John Moore's Book 2
Z:Transcribed by Edmund Spriggs 05/2021
%%VWML: Moore1-4494-p62-0
F:http://www.vwml.org/record/Moore2/4494/p62
N:The grace note in the first bar of the first strain should be e, not d.
N:The second a in the third bar of the second strain should be a quaver, not a crotchet.
N:At the end of the tune, "D Capo" should be "Da Capo".
M:6/8
L:1/8
K:D
A|d2d {d/}dcd|B2B Bed|(cB)A ABc|{e/}d2fa2A|
d2d {e/}dcd|B2B Bed|(cB)A ABc|1d3"Fine"d2:|2dfed2|]
f|g2e (ef)e|c2A (AB)A|a2a2 (ab)a|f2dd2A|
dcd ede|fef gfg|(ab)a agf|!fermata!f3"D Capo"!fermata!e2|]

